!!!COM: Frescobaldi, Girolamo
!!!CDT: 1583///-1643
!!!ONM: No. 18
!!!OTL: No. 18: Canzon Prima &agrave; 2 Canti
!!!OPR: Canzoni da sonare a una, due, tre et quattro, libro primo
!!!PPP: Venezia
!!!PDT: 1634
!!!URL: http://icking-music-archive.org/ByComposer/Frescobaldi.html
!!!ONB: Andrea Friggi, ed.
**kern	**kern	**kern
!Basso ad Organo	!Canto Secondo	!Canto Primo
*staff3	*staff2	*staff1
*Icello	*Ivioln	*Ivioln
*clefF4	*clefG2	*clefG2
*k[]	*k[]	*k[]
*met(C)	*met(C)	*met(C)
*M4/4	*M4/4	*M4/4
*MM120	*MM120	*MM120
=1-	=1-	=1-
2GG/	4dd\	1r
.	8b\L	.
.	8ee\J	.
4G\	4dd\	.
8E\L	8ee\L	.
8A\J	8ff\J	.
=2	=2	=2
4G\	8gg\L	1r
.	8ff\	.
8A\L	8ee\	.
8B\J	8dd\J	.
4c\	8ee\L	.
.	8ff\	.
4C/	8gg\	.
.	8ee\J	.
=3	=3	=3
4D\	4ff#\	4dd\
4G\	4gg\	8b\L
.	.	8ee\J
4G\	8r	4dd\
.	8b\L	.
8E\L	8cc\	8ee\L
8D\J	8dd\J	8ff\J
=4	=4	=4
2C/	8ee\L	8gg\L
.	16a\L	8ff\
.	16b\JJ	.
.	8cc\L	8ee\
.	8b\J	8dd\J
2AA/	8cc\L	8ee\L
.	8cc\	8ee\
.	8b\	8dd\
.	8a\J	8cc\J
=5	=5	=5
4GG/	2b\	2dd\
2G\	.	.
.	2r	4gg\
4A\	.	8ee\L
.	.	8aa\J
=6	=6	=6
4G\	1r	4dd\
8E\L	.	8ee\L
8A\J	.	8ff\J
4G\	.	8gg\L
.	.	8ff\
8A\L	.	8ee\
8B\J	.	8dd\J
=7	=7	=7
8c\L	4cc\	4ee\
8C\J	.	.
4D\	8a\L	4ff#\
.	8dd\J	.
4G\	4b\	8gg\L
.	.	8dd\
8E\L	8cc\L	8ee\
8D\J	8dd\J	8ffn\J
=8	=8	=8
2C/	2ee\	8gg\L
.	.	16cc\L
.	.	16dd\JJ
.	.	8ee\L
.	.	8cc\J
4G\	8r	8dd\L
.	8g/L	8b\
4F\	8a/	8cc\
.	8b/J	8dd\J
=9	=9	=9
4C/	8cc\L	4.ee\
.	16a\L	.
.	16b\JJ	.
8AA/L	8cc\L	.
8C/J	8cc\J	8ee\
4GG/	8b\L	8dd\L
.	8cc\	8ee\
4AA/	8a\	8cc\
.	8b\J	8dd\J
=10	=10	=10
2.E\	2g#/	8b\L
.	.	8ee\
.	.	8b\
.	.	8cc\J
.	8r	4g#/
.	8ee\L	.
4F\	8cc\	4a/
.	8ff\J	.
=11	=11	=11
4G\	4dd\	8b\L
.	.	8gg\
4A\	4cc#\	8ee\
.	.	8aa\J
4D\	8r	4ff#\
.	8dd\L	.
4G\	8b\	4gg\
.	8ee\J	.
=12	=12	=12
4A\	4cc#\	8r
.	.	8aa\L
4B-\	4dd\	8ff\
.	.	8gg\J
4.A\	8r	8ee\L
.	8aa\L	8ff\
.	8ee\	8cc\
8D\	8ff\J	8dd\J
=13	=13	=13
4AA/	4cc#\	8ee\L
.	.	8aa\
4BB-/	2dd\	8ff\
.	.	8gg\J
4GG/	.	2ee\
4AA/	4cc#\	.
=14	=14	=14
1D	1dd	1ff#
=15:|!	=15:|!	=15:|!
*M3/2	*M3/2	*M3/2
1GG	2.gg\	1.r
.	4gg\	.
2GG/	4ff\	.
.	4ee\	.
=16	=16	=16
1D	4ff\	2.dd\
.	8dd\L	.
.	8ee\J	.
.	4ff\	.
.	4ff\	4dd\
2G\	4ee\	4cc\
.	4dd\	4b\
=17	=17	=17
1.C	2.ee\	4cc\
.	.	8a/L
.	.	8b/J
.	.	4cc\
.	4ee\	4cc\
.	4dd\	4b\
.	4cc\	4a/
=18	=18	=18
1.G	2.dd\	1b
.	4dd\	.
.	4cc\	2r
.	4b\	.
=19	=19	=19
1A	1cc#	2.ee\
.	.	4ee\
2A\	2r	4dd\
.	.	4cc#\
=20	=20	=20
2.D\	1.r	4.dd\
.	.	8ee\
.	.	4ff\
4D\	.	4ff\
4C/	.	4ee\
4BB/	.	4dd\
=21	=21	=21
1AA	4cc\	1ee
.	8a/L	.
.	8b/J	.
.	4cc\	.
.	4cc\	.
2AA/	4b\	2r
.	4a/	.
=22	=22	=22
1.GG	1b	2.gg\
.	.	4gg\
.	2r	4ff\
.	.	4ee\
=23	=23	=23
1D	2.aa\	4ff\
.	.	8dd\L
.	.	8ee\J
.	.	4ff\
.	4aa\	4ff\
2G\	4gg\	4ee\
.	4ff\	4dd\
=24	=24	=24
1C	4gg\	1ee
.	8ee\L	.
.	8ff\J	.
.	4gg\	.
.	4gg\	.
2C/	4ff\	2r
.	4ee\	.
=25	=25	=25
2D\	2.ff\	4dd\
.	.	8a/L
.	.	8b/J
1AA	.	4cc\
.	4ee\	4cc\
.	4dd\	4b\
.	4cc\	4a/
=26	=26	=26
1E	4b\	4g/
.	8cc#\L	8ee\L
.	8dd\J	8ff\J
.	4ee\	4gg\
.	4ee\	4gg\
2F\	4dd\	4ff\
.	4ccn\	4ee\
=27	=27	=27
2G\	4.b\	4.dd\
.	8cc\	8ee\
2D\	4dd\	4ff\
.	4dd\	4gg\
2A\	2cc#\	2ee\
=28	=28	=28
*met(C)	*met(C)	*met(C)
*M4/4	*M4/4	*M4/4
1D	1dd	1ff#
=29	=29	=29
1BB	2r	1r
.	2g/	.
=30	=30	=30
*	*MM130	*
1AA	2.cc\	1r
.	4cc\	.
=31	=31	=31
2E\	2b\	2r
2C#/	[2ee\	2ee\
=32	=32	=32
1D	4ee\]	2.ff\
.	8dd\L	.
.	8cc#\J	.
.	[2dd\	.
.	.	4ff\
=33	=33	=33
1AA	4dd\]	2ee\
.	8cc\L	.
.	8b\J	.
.	2cc\	[2aa\
=34	=34	=34
1E	1b	2aa\]
.	.	2gg#\
=35	=35	=35
1F	2a/	4aa\
.	.	4a/
.	[2ff\	4dd\
.	.	4cc\
=36	=36	=36
2G\	4ff\]	2b\
.	8ee\L	.
.	8dd\J	.
2C/	4ee\	[2cc\
.	4ff\	.
=37	=37	=37
2F#\	2.dd\	2cc\]
2G\	.	2b\
.	4dd\	.
=38	=38	=38
1C	1ee	1cc
=39	=39	=39
*clefC4	*	*MM120
2c\	1r	8r
.	.	8g/L
.	.	8a/
.	.	8b/J
4c\	.	8cc/L
.	.	8g/J
4c\	.	4cc\
=40	=40	=40
4d\	2r	4b\
4e\	.	8a/L
.	.	8g/J
2f\	8r	2a/
.	8cc\L	.
.	8dd\	.
.	8ee\J	.
=41	=41	=41
2F/	8ff\L	8r
.	8cc\J	8ff\L
.	4ff\	8ee\
.	.	8dd\J
4.c\	8r	8ee\L
.	8ee\L	8gg\
.	8dd\	8ff\
8c\	8cc\J	8ee\J
=42	=42	=42
2d\	8ff\L	8dd\L
.	8ff\	8aa\
.	8ee\	8gg\
.	8dd\J	8ff\J
2c\	8ee\L	2gg\
.	8g\	.
.	8a\	.
.	8b\J	.
=43	=43	=43
*clefF4	*	*
2C/	8cc/L	2r
.	8g/J	.
.	4cc\	.
2G\	2b\	8r
.	.	8dd\L
.	.	8ee\
.	.	8ff#\J
=44	=44	=44
4.BB/	8r	8gg\L
.	8gg\L	8dd\J
.	8ff\	4gg\
8C#/	8ee\J	.
2D\	8ff#\L	8r
.	8aa\	8b\L
.	8gg\	8cc\
.	8ff#\J	8dd\J
=45	=45	=45
2E\	2gg\	8g\L
.	.	8gg\
.	.	8ff\
.	.	8ee\J
2D\	8r	8ff#\L
.	8b\L	8aa\
.	8cc\	8gg\
.	8dd\J	8ff#\J
=46	=46	=46
2BB/	4.g/	8gg\L
.	.	8aa\
.	.	8gg\
.	8dd\	8ff\J
2C/	8ee\L	2ee\
.	8ff\	.
.	8gg\	.
.	8cc\J	.
=47	=47	=47
2D\	8ff\L	1r
.	8ee\	.
.	8ff\	.
.	8gg\J	.
2C#/	8ee\L	.
.	8gg\	.
.	8ff\	.
.	8ee\J	.
=48	=48	=48
4.D\	2ff#\	8r
.	.	8a\L
.	.	8b\
8E\	.	8cc\J
4.F#\	2r	8dd\L
.	.	8a\J
.	.	4dd\
8G\	.	.
=49	=49	=49
4A\	8r	2cc#\
.	8ee\L	.
4AA/	8dd\	.
.	8cc#\J	.
4.BB/	8dd\L	2r
.	8gg\	.
.	8ff\	.
8C#/	8ee\J	.
=50	=50	=50
2D\	2ff#\	8r
.	.	8dd\L
.	.	8cc\
.	.	8b\J
2AA/	2r	8cc#\L
.	.	8ee\
.	.	8dd\
.	.	8cc#\J
=51	=51	=51
2.BB/	8r	8dd\L
.	8b\L	8dd\
.	8cc\	8ee\
.	8dd\J	8ff#\J
.	2g/	8gg\L
.	.	8dd\J
4GG/	.	[4gg\
=52	=52	=52
1D	8r	8gg\L]
.	8a\L	8gg\
.	8b\	8ff\
.	8cc#\J	8ee\J
.	8dd\L	2ff\
.	8a\J	.
.	4dd\	.
=53	=53	=53
2A\	8ee\L	8r
.	8cc\	8ee\L
.	8b\	8dd\
.	8a\J	8cc\J
2G\	8.b\L	8.dd\L
.	16b\Jk	16dd\Jk
.	8cc\L	8cc\L
.	8dd\J	8b\J
=54	=54	=54
2E\	8g\L	8cc\L
.	8gg\	8ee\
.	8ff\	8ff\
.	8ee\J	8gg\J
2F\	8aa\L	2cc\
.	8a\	.
.	8b\	.
.	8cc\J	.
=55	=55	=55
2D\	2dd\	8r
.	.	8b\L
.	.	8cc\
.	.	8dd\J
4E\	2r	8g\L
.	.	8gg\
4F\	.	8ff\
.	.	8ee\J
=56	=56	=56
1G	8r	4dd\
.	8dd\L	.
.	8ee\	2cc\
.	8ff\J	.
.	8gg\L	.
.	8dd\J	.
.	4gg\	4b\
=57	=57	=57
1A	8ee\L	4cc#\
.	8aa\	.
.	8ff\	2dd\
.	8gg\J	.
.	2ee\	.
.	.	4cc#\
=58	=58	=58
1D	1ff#	1dd
=59	=59	=59
*MM130	*	*
1G	1r	2r
.	.	[2dd\
=60	=60	=60
2F\	1r	4dd\]
.	.	4dd\
2E\	.	2ee\
=61	=61	=61
1D	1r	2ff\
.	.	2dd\
=62	=62	=62
1C	2r	1ee
.	[2g/	.
=63	=63	=63
2BB/	4g/]	1r
.	4g/	.
2AA/	2a/	.
=64	=64	=64
2GG/	2b\	1r
2EE/	[2cc\	.
=65	=65	=65
1GG	2cc\]	2r
.	2b\	[2gg\
=66	=66	=66
1D	2a/	4gg\]
.	.	8ff\L
.	.	8ee\J
.	4r	4.ff\
.	[4dd\	.
.	.	16gg\LL
.	.	16ff\JJ
=67	=67	=67
2A\	8dd\L]	4.ee\
.	16cc\L	.
.	16b\JJ	.
.	4.cc\	.
.	.	16ff\LL
.	.	16ee\JJ
4F#\	.	4.dd\
.	16b/LL	.
.	16a/JJ	.
4G\	[4b\	.
.	.	16ee\LL
.	.	16dd\JJ
=68	=68	=68
4E\	8b/L]	4.cc\
.	16a/L	.
.	16g/JJ	.
4F\	4.a/	.
.	.	16dd\LL
.	.	16cc\JJ
4D\	.	4.b\
.	16g/LL	.
.	16f/JJ	.
4E\	[4g/	.
.	.	16cc\LL
.	.	16b\JJ
=69	=69	=69
4C/	8g/L]	2a/
.	16f#/L	.
.	16e/JJ	.
4D\	4f#/	.
2GG/	2g/	2g/
=70	=70	=70
*M2/2	*M2/2	*M2/2
*	*MM212	*
2C/	4ee\	2.r
.	4cc\	.
4C/	4ee\	.
=71	=71	=71
2G\	4.dd\	2.r
.	8ee\L	.
4A\	8cc\	.
.	8dd\J	.
=72	=72	=72
2G\	2b\	4gg\
.	.	4dd\
4r	4r	4gg\
=73	=73	=73
2.D\	2.r	4.ff\
.	.	8aa\L
.	.	8ff\
.	.	8gg\J
=74	=74	=74
2C/	4cc\	2.ee\
.	4g/	.
4C/	4cc\	.
=75	=75	=75
2G\	4.b\	2.r
.	8cc\L	.
4F\	8a\	.
.	8b\J	.
=76	=76	=76
2.E\	2.g#/	4ee\
.	.	4b\
.	.	4ee\
=77	=77	=77
2A\	2r	4.cc\
.	.	8dd\L
4G\	4ee\	8b\
.	.	8cc\J
=78	=78	=78
2F\	4ff\	2a/
.	4ff\	.
4FF/	4ff\	4a/
=79	=79	=79
2.C/	2ee\	4cc\
.	.	4cc\
.	4ee\	4cc\
=80	=80	=80
2G\	2.dd\	2b-\
4F\	.	4a/
=81	=81	=81
2.C/	2r	4g/
.	.	4f/
.	4ee\	4g/
=82	=82	=82
2FF/	4ff\	2a/
.	4ff\	.
4FF/	4ff\	4aa\
=83	=83	=83
2C/	2ee\	4gg\
.	.	4gg\
4D\	4dd\	4ff\
=84	=84	=84
2.AA/	4.cc#\	4.ee\
.	8b\	8dd\
.	4cc#\	4ee\
=85	=85	=85
2D\	2dd\	2.ff#\
4D\	4a/	.
=86	=86	=86
2GG/	4b-\	2.r
.	4b-\	.
4AA/	4a/	.
=87	=87	=87
2.C/	4g/	4r
.	4cc\	4r
.	4b-\	4gg\
=88	=88	=88
2F\	4.a/	4aa\
.	.	4aa\
.	8a\L	.
4E\	8b\	4gg\
.	8cc#\J	.
=89	=89	=89
2.D\	4dd\	8ff\L
.	.	8ee\
.	4a/	8ff\
.	.	8gg\J
.	4dd\	4ff\
=90	=90	=90
4D\	4dd\	4ff\
2AA/	4.cc#\	2ee\
.	16b\LL	.
.	16cc#\JJ	.
=91	=91	=91
*met(C)	*met(C)	*met(C)
*M4/4	*M4/4	*M4/4
*	*	*MM80
2D\	2dd\	2dd\
2E\	2r	16r
.	.	16g/LL
.	.	16a/
.	.	16b/JJ
.	.	16cc\LL
.	.	16dd\
.	.	16ee\
.	.	16b\JJ
=92	=92	=92
2AA/	16r	2cc\
.	16cc#\LL	.
.	16dd\	.
.	16ee\JJ	.
.	16ff\LL	.
.	16gg\	.
.	16aa\	.
.	16ee\JJ	.
2AA/	4ff\	16r
.	.	16aa\LL
.	.	16gg\
.	.	16aa\JJ
.	16r	[4ee\
.	16ccn\LL	.
.	16b\	.
.	16cc\JJ	.
=93	=93	=93
2EE/	[4g/	16ee\LL]
.	.	16dd\
.	.	16ee\
.	.	16ff\JJ
.	16g/LL]	4.gg\
.	16a/	.
.	16b/	.
.	16cc/JJ	.
[2BB/	2dd\	.
.	.	16dd\LL
.	.	16ee\JJ
.	.	8b\L
.	.	16cc\L
.	.	16dd\JJ
=94	=94	=94
4BB/]	8r	4g/
.	16gg\LL	.
.	16aa\JJ	.
4C#/	8ee\L	4a/
.	16ff\L	.
.	16gg\JJ	.
2D\	4ff#\	16r
.	.	16dd\LL
.	.	16cc\
.	.	16dd\JJ
.	16r	4b\
.	16dd\LL	.
.	16cc\	.
.	16dd\JJ	.
=95	=95	=95
2E\	4b\	8r
.	.	16gg\LL
.	.	16aa\JJ
.	4cc#\	8ee\L
.	.	16ff\L
.	.	16gg\JJ
2D\	2dd\	2ff#\
=96	=96	=96
0GG	0b	0gg
==	==	==
*-	*-	*-
!!!ENC: Craig Stuart Sapp
!!!END: 2004/12/14/
